assets/symbols/mulberry/flag_the_bahamas.svg

<svg height="850.394" viewBox="0 0 850.394 850.394" width="850.394" xmlns="http://www.w3.org/2000/svg"><path d="m748.18 406v114.17h-579.62l-.07-7.76 167.22-106.87.29.46h410z" fill="#a8d7f4"/><path d="m748.18 274v132h-412.18l-.29-.46 96.29-61.54-89.39-70h401.39z" fill="#fbed24"/><path d="m748.18 177.46v96.54h-405.57l-170.67-133.66h576.24z" fill="#a8d7f4"/><path d="m342.61 274 89.39 70-96.29 61.54-167.22 106.87-.92-100.07 4.2-272h.17z" fill="#231f20"/><path d="m171.94 140.34h-.17v-.13zm-.17 0-4.2 272-2.5-272z" fill="#fff"/><path d="m162.61 114.42c-5.96 2.8-13.07 4.43-20.69 4.43-7.3 0-14.12-1.49-19.92-4.08-10.99-4.89-18.33-13.72-18.33-23.8 0-15.4 17.13-27.88 38.25-27.88 21.13 0 38.26 12.48 38.26 27.88 0 9.84-7 18.49-17.57 23.45z" fill="#c8c8c8"/><path d="m167.57 412.34.92 100.07-2.49 1.59z" fill="#fff"/><path d="m162.61 114.42v670.96h-39.49l-1.12-670.61c5.8 2.59 12.62 4.08 19.92 4.08 7.62 0 14.73-1.63 20.69-4.43z" fill="#c8c8c8"/><g fill="none"><g stroke="#231f20"><path d="m171.94 140.34h576.24v379.83h-579.62m-3.49-379.83h6.7m-49.77-25.57c-10.99-4.89-18.33-13.72-18.33-23.8 0-15.4 17.13-27.88 38.25-27.88 21.13 0 38.26 12.48 38.26 27.88 0 9.84-7 18.49-17.57 23.45-5.96 2.8-13.07 4.43-20.69 4.43-7.3 0-14.12-1.49-19.92-4.08z" stroke-width="21"/><path d="m122 114v.77l1.12 670.61m39.49-672.78v672.78" stroke-width="21"/><path d="m744.76 179.39 3.42-1.93 2.01-1.14m-578.42-36.11.17.13 170.67 133.66 89.39 70-96.29 61.54-167.22 106.87-2.49 1.59m170-108h410m-404-132h402" stroke-width="14"/></g><path d="m0 0h850.394v850.394h-850.394z"/></g></svg>

<svg xmlns="http://www.w3.org/2000/svg" width="850.394" height="850.394" viewBox="0 0 850.394 850.394" overflow="visible"><path fill="#a8d7f4" d="M748.18 406v114.17H168.56l-.07-7.76 167.22-106.87.29.46h410z"/><path fill="#fbed24" d="M748.18 274v132H336l-.29-.46L432 344l-89.39-70H744z"/><path fill="#a8d7f4" d="M748.18 177.46V274H342.61L171.94 140.34h576.24z"/><path fill="#231f20" d="M342.61 274L432 344l-96.29 61.54-167.22 106.87-.92-100.07 4.2-272h.17z"/><path fill="#fff" d="M171.94 140.34h-.17v-.13zM171.77 140.34l-4.2 272-2.5-272z"/><path d="M162.61 114.42c-5.96 2.8-13.07 4.43-20.69 4.43-7.3 0-14.12-1.49-19.92-4.08-10.99-4.89-18.33-13.72-18.33-23.8 0-15.4 17.13-27.88 38.25-27.88 21.13 0 38.26 12.48 38.26 27.88 0 9.84-7 18.49-17.57 23.45z" fill="#c8c8c8"/><path fill="#fff" d="M167.57 412.34l.92 100.07L166 514z"/><path d="M162.61 114.42v670.96h-39.49L122 114.77c5.8 2.59 12.62 4.08 19.92 4.08 7.62 0 14.73-1.63 20.69-4.43z" fill="#c8c8c8"/><g fill="none" stroke="#231f20"><path stroke-width="21" d="M171.94 140.34h576.24v379.83H168.56M165.07 140.34h6.7M122 114.77c-10.99-4.89-18.33-13.72-18.33-23.8 0-15.4 17.13-27.88 38.25-27.88 21.13 0 38.26 12.48 38.26 27.88 0 9.84-7 18.49-17.57 23.45-5.96 2.8-13.07 4.43-20.69 4.43-7.3 0-14.12-1.49-19.92-4.08z"/><path stroke-width="21" d="M122 114v.77l1.12 670.61M162.61 112.6V785.38"/><path stroke-width="14" d="M744.76 179.39l3.42-1.93 2.01-1.14M171.77 140.21l.17.13L342.61 274 432 344l-96.29 61.54-167.22 106.87L166 514M336 406h410M342 274h402"/></g><path fill="none" d="M0 0h850.394v850.394H0z"/></svg>
